X:365
T:Terkisher
Z:Jack Campin, http://www.campin.me.uk/
F:Jack Campin's Nine-Note Tunebook
% last edit 03-02-2013
M:4/4
L:1/8
Q:1/2=69
N:an Egyptian tune that found its way into the klezmer
N:repertoire via Greek musicians in New York
K:DPhr
z2|TA3G      ABcB | TA3  G ^FDFG           |TA3     G   ABcB   |A4 zABA|
   (AB)(TBA) BAG^F|  G4     z^FG^G         |(AG)(TG^F) (FE)(ED)|
   TD2  ^CD TE2 DE|T^F2 EF  G2 z3/ (F//G//)| AGG^F      FEED   |D4 z2:|
(TD>C)|(D2   d2)  d2  d2  | d4-    dGAB           | c3    A   (BA) (BG)|A4 zABc|
       (cB)(TBA) (AG)(G^F)|^F3  A- A^GAB          |(AG)(G^F)  (FE)(TED)|
        TD2 ^CD   E2  DE  |^F2 EF  G2 z3/ (F//G//)|(AG)(TG^F) (FE)(TED)|D6    :|
Q:1/2=92
z2|zd~cB ~AG~^FE|(DE^FG) ~AG A2|zAcB  ~AG ~^FE |DE^FG ~FE D2|
   zd~cB ~AG~^FE|(DE^FG)  AG FA|GCDE (^FG)(TFE)|D6         :|


% == Israeli dances =========================================================

